style/elvis/src/icons/svg/src/phone-support.svg

<svg width="25" height="25" viewBox="0 0 25 25" fill="none" xmlns="http://www.w3.org/2000/svg">
<path d="M15.785 23.2995C14.788 23.2995 13.811 23.0121 12.959 22.4695L12.921 22.4435C8.531 19.4741 4.79301 15.7318 1.82101 11.3287C1.81501 11.3197 1.79801 11.2927 1.79201 11.2817C0.469007 9.20227 0.766007 6.51618 2.52001 4.76016L3.15001 4.13044C3.57401 3.70595 4.13901 3.47269 4.74001 3.47269C5.34201 3.47269 5.90701 3.70696 6.33101 4.13144L8.98301 6.78549C9.408 7.21098 9.642 7.77663 9.641 8.37932C9.641 8.98201 9.40701 9.54766 8.98201 9.97215C8.69001 10.2645 8.69001 10.741 8.98201 11.0334L13.224 15.2812C13.365 15.4224 13.554 15.5005 13.754 15.5005C13.954 15.5005 14.143 15.4224 14.284 15.2812C14.709 14.8558 15.274 14.6225 15.876 14.6225C16.478 14.6225 17.043 14.8568 17.467 15.2812L20.112 17.9283C20.545 18.3618 20.779 18.9274 20.779 19.5291C20.779 20.1308 20.544 20.6965 20.119 21.122L19.491 21.7517C18.496 22.7498 17.179 23.2995 15.785 23.2995ZM4.74101 4.97341C4.54001 4.97341 4.35201 5.0515 4.21101 5.19266L3.58001 5.82339C2.32701 7.07783 2.11701 8.99903 3.06901 10.4958C5.92901 14.7326 9.53201 18.3388 13.772 21.2071C13.774 21.2081 13.793 21.2221 13.795 21.2231C14.381 21.5965 15.073 21.7987 15.779 21.7987C16.775 21.7987 17.717 21.4043 18.432 20.6895L19.061 20.0597C19.203 19.9176 19.281 19.7294 19.281 19.5281C19.281 19.3299 19.205 19.1427 19.066 19.0015L16.408 16.3425C16.266 16.2003 16.078 16.1232 15.877 16.1232C15.676 16.1232 15.488 16.2013 15.347 16.3425C14.922 16.768 14.357 17.0012 13.755 17.0012C13.154 17.0012 12.589 16.767 12.164 16.3425L7.92201 12.0946C7.04501 11.2166 7.04501 9.78794 7.92201 8.90893C8.06401 8.76677 8.14201 8.57855 8.14201 8.37832C8.14201 8.17809 8.06401 7.98887 7.92301 7.84671L5.27101 5.19366C5.13001 5.0515 4.94101 4.97341 4.74101 4.97341Z" fill="black"/>
<path d="M13.732 9.77406C13.428 9.77406 13.156 9.59185 13.039 9.31052C12.923 9.0292 12.986 8.70783 13.201 8.49258L17.121 4.56708C17.353 4.33381 17.481 4.02445 17.481 3.69608C17.481 2.90817 16.839 2.26643 16.052 2.26643C15.159 2.26643 14.859 2.73998 14.486 3.87428L14.443 4.00443C14.34 4.31278 14.054 4.51902 13.731 4.51902C13.65 4.51902 13.571 4.50601 13.494 4.47998C13.304 4.4169 13.15 4.28275 13.061 4.10354C12.972 3.92434 12.957 3.7211 13.02 3.53089L13.062 3.40474C13.365 2.48268 13.929 0.764709 16.053 0.764709C17.668 0.765711 18.981 2.08122 18.982 3.69708C18.981 4.42691 18.697 5.1137 18.183 5.6293L15.543 8.27333H18.233C18.647 8.27333 18.983 8.60972 18.983 9.02419C18.983 9.43867 18.647 9.77506 18.233 9.77506H13.732V9.77406Z" fill="black"/>
<path d="M24.232 9.77405C23.818 9.77405 23.482 9.43766 23.482 9.02319V8.27232H20.482C20.209 8.27232 19.958 8.12415 19.826 7.88488C19.694 7.64661 19.701 7.35527 19.846 7.12401L23.596 1.11711C23.734 0.895854 23.971 0.763702 24.232 0.763702C24.302 0.763702 24.371 0.773714 24.439 0.792736C24.759 0.884841 24.982 1.18118 24.982 1.51456V9.02319C24.982 9.43766 24.646 9.77405 24.232 9.77405ZM23.482 6.7706V4.13257L21.835 6.7706H23.482Z" fill="black"/>
</svg>

<svg width="25" height="25" fill="none" xmlns="http://www.w3.org/2000/svg"><path d="M15.785 23.3a5.255 5.255 0 01-2.826-.83l-.038-.026A41.167 41.167 0 011.792 11.281 5.22 5.22 0 012.52 4.76l.63-.63a2.232 2.232 0 011.59-.657c.602 0 1.167.234 1.591.658l2.652 2.655c.425.425.659.99.658 1.593 0 .603-.234 1.169-.659 1.593a.752.752 0 000 1.061l4.242 4.248a.746.746 0 001.06 0c.425-.425.99-.658 1.592-.658.602 0 1.167.234 1.591.658l2.645 2.647c.433.434.667 1 .667 1.601a2.24 2.24 0 01-.66 1.593l-.628.63a5.204 5.204 0 01-3.706 1.547zM4.741 4.972a.744.744 0 00-.53.22l-.631.63a3.736 3.736 0 00-.511 4.673 39.69 39.69 0 0010.703 10.711l.023.016a3.702 3.702 0 001.984.576c.996 0 1.938-.395 2.653-1.11l.629-.63a.746.746 0 00.22-.53.746.746 0 00-.215-.527l-2.658-2.66a.743.743 0 00-.531-.219.744.744 0 00-.53.22c-.425.425-.99.658-1.592.658a2.237 2.237 0 01-1.591-.659l-4.242-4.247a2.257 2.257 0 010-3.186.751.751 0 00.001-1.062L5.271 5.194a.742.742 0 00-.53-.22zm8.991 4.802a.75.75 0 01-.531-1.281l3.92-3.926c.232-.233.36-.543.36-.87 0-.789-.642-1.43-1.429-1.43-.893 0-1.193.473-1.566 1.607l-.043.13a.75.75 0 11-1.423-.473l.042-.126c.303-.922.867-2.64 2.991-2.64a2.936 2.936 0 012.929 2.932 2.726 2.726 0 01-.799 1.932l-2.64 2.644h2.69a.75.75 0 010 1.502h-4.501zm10.5 0a.75.75 0 01-.75-.75v-.752h-3a.749.749 0 01-.636-1.148l3.75-6.007a.745.745 0 01.843-.324c.32.092.543.388.543.722v7.508a.75.75 0 01-.75.751zm-.75-3.003V4.133L21.835 6.77h1.647z" fill="#1B314B"/></svg>
